assets/svg/action_contactsend_success.svg

<svg width="80" height="80" viewBox="0 0 80 80" fill="none" xmlns="http://www.w3.org/2000/svg">
<path d="M60.8204 47.7588C59.6173 47.7588 58.6423 48.7338 58.6423 49.9369V72.8057C58.6423 73.8338 57.8063 74.6713 56.7798 74.6713L28.661 74.6432C27.4595 74.6416 26.4829 75.6166 26.4829 76.8182L56.7782 76.8478C59.011 76.8478 60.8204 75.0385 60.8204 72.8057V47.7588Z" fill="#E1EAF8"/>
<path d="M60.8228 12.126C54.6962 12.126 49.729 17.0932 49.729 23.2197C49.729 29.3463 54.6962 34.3135 60.8228 34.3135C66.9493 34.3135 71.9165 29.3463 71.9165 23.2197C71.9181 17.0932 66.9509 12.126 60.8228 12.126Z" fill="#0166FF"/>
<path d="M59.8644 27.0489L66.925 20.3016C67.0983 20.1231 67.1958 19.8846 67.1972 19.6358C67.1987 19.3871 67.1039 19.1475 66.9328 18.967C66.7616 18.7865 66.5274 18.6792 66.2789 18.6674C66.0305 18.6557 65.7871 18.7404 65.5997 18.9039L59.1897 25.0127L56.3221 22.2776C56.2316 22.1843 56.1232 22.1103 56.0033 22.0601C55.8835 22.0098 55.7548 21.9843 55.6248 21.985C55.4949 21.9858 55.3664 22.0128 55.2472 22.0645C55.1279 22.1161 55.0204 22.1914 54.931 22.2857C54.8416 22.38 54.7721 22.4913 54.7269 22.6132C54.6816 22.735 54.6614 22.8647 54.6676 22.9945C54.6737 23.1243 54.706 23.2515 54.7626 23.3685C54.8192 23.4855 54.8988 23.5898 54.9967 23.6752L58.527 27.0489C58.7052 27.2199 58.9428 27.3149 59.1897 27.314C59.4403 27.3155 59.6819 27.2206 59.8644 27.0489Z" fill="white"/>
<path d="M69.8341 53.4385C69.756 53.4385 69.6779 53.4213 69.6029 53.387L65.9185 51.662C65.8535 51.6316 65.795 51.5887 65.7466 51.5358C65.6981 51.4828 65.6605 51.4208 65.636 51.3534C65.6115 51.2859 65.6005 51.2143 65.6036 51.1425C65.6068 51.0708 65.6241 51.0004 65.6544 50.9354C65.6848 50.8703 65.7277 50.8119 65.7806 50.7634C65.8336 50.715 65.8956 50.6774 65.963 50.6529C66.0305 50.6284 66.1021 50.6174 66.1739 50.6205C66.2456 50.6237 66.316 50.641 66.381 50.6713L70.0654 52.3963C70.1783 52.4488 70.2699 52.5383 70.3251 52.65C70.3802 52.7616 70.3955 52.8888 70.3686 53.0104C70.3416 53.1319 70.2739 53.2406 70.1767 53.3185C70.0795 53.3964 69.9587 53.4387 69.8341 53.4385ZM65.6498 39.3354C65.4513 39.3354 65.2607 39.2276 65.1638 39.0401C65.1307 38.9763 65.1105 38.9066 65.1044 38.835C65.0983 38.7634 65.1063 38.6912 65.1281 38.6227C65.1498 38.5542 65.1849 38.4907 65.2313 38.4358C65.2776 38.3808 65.3343 38.3356 65.3982 38.3026L69.0107 36.4323C69.1396 36.3656 69.2897 36.3528 69.428 36.3967C69.5663 36.4407 69.6815 36.5378 69.7482 36.6666C69.8149 36.7955 69.8277 36.9456 69.7837 37.0839C69.7398 37.2222 69.6427 37.3374 69.5138 37.4041L65.9013 39.2745C65.8201 39.3166 65.7341 39.3354 65.6498 39.3354ZM9.16069 53.4385C9.03616 53.4387 8.9153 53.3964 8.81811 53.3185C8.72092 53.2406 8.65324 53.1319 8.62626 53.0104C8.59928 52.8888 8.61463 52.7616 8.66977 52.65C8.7249 52.5383 8.81651 52.4488 8.92944 52.3963L12.6138 50.6713C12.6789 50.641 12.7493 50.6237 12.821 50.6205C12.8927 50.6174 12.9643 50.6284 13.0318 50.6529C13.0993 50.6774 13.1612 50.715 13.2142 50.7634C13.2671 50.8119 13.31 50.8703 13.3404 50.9354C13.3707 51.0004 13.388 51.0708 13.3912 51.1425C13.3943 51.2143 13.3833 51.2859 13.3588 51.3534C13.3343 51.4208 13.2967 51.4828 13.2483 51.5358C13.1998 51.5887 13.1414 51.6316 13.0763 51.662L9.39194 53.387C9.31694 53.4213 9.23882 53.4385 9.16069 53.4385ZM13.3451 39.3354C13.2576 39.3349 13.1715 39.314 13.0935 39.2745L9.481 37.4041C9.21225 37.2651 9.10757 36.9354 9.24663 36.6666C9.38569 36.3979 9.71538 36.2932 9.98413 36.4323L13.5966 38.3026C13.8654 38.4416 13.9701 38.7713 13.831 39.0401C13.785 39.1292 13.7152 39.2039 13.6295 39.256C13.5438 39.3081 13.4454 39.3356 13.3451 39.3354Z" fill="#0166FF"/>
<path d="M13.6118 68.6693L17.6649 67.1755V72.7959C17.6649 74.838 16.1556 76.5255 14.1915 76.8084L13.6103 76.8505C11.3712 76.8505 9.55713 75.0349 9.55713 72.7974V68.2568C9.55713 67.4146 10.4649 66.8865 11.1978 67.3021L13.6118 68.6693Z" fill="#E1EAF8"/>
<path d="M51.347 13.7767C51.347 13.4751 51.1017 13.2298 50.8001 13.2298H27.6829C27.3813 13.2298 27.136 13.4751 27.136 13.7767C27.136 14.0783 27.3813 14.3236 27.6829 14.3236H50.8001C51.1032 14.3236 51.347 14.0783 51.347 13.7767ZM22.4595 21.3736C22.4595 21.6751 22.7048 21.9204 23.0063 21.9204H46.9017C47.2032 21.9204 47.4485 21.6751 47.4485 21.3736C47.4485 21.072 47.2032 20.8267 46.9017 20.8267H23.0063C22.7048 20.8267 22.4595 21.072 22.4595 21.3736ZM23.0063 29.6532H47.9907C48.2923 29.6532 48.5376 29.4079 48.5376 29.1064C48.5376 28.8048 48.2923 28.5595 47.9907 28.5595H23.0063C22.7048 28.5595 22.4595 28.8048 22.4595 29.1064C22.4595 29.4079 22.7048 29.6532 23.0063 29.6532ZM50.3063 44.0236H28.697C28.3954 44.0236 28.1501 44.2689 28.1501 44.5704C28.1501 44.872 28.3954 45.1173 28.697 45.1173H50.3048C50.6063 45.1173 50.8517 44.872 50.8517 44.5704C50.8517 44.2689 50.6079 44.0236 50.3063 44.0236ZM55.997 51.7564H23.0063C22.7048 51.7564 22.4595 52.0017 22.4595 52.3032C22.4595 52.6048 22.7048 52.8501 23.0063 52.8501H55.997C56.2985 52.8501 56.5438 52.6048 56.5438 52.3032C56.5438 52.0017 56.2985 51.7564 55.997 51.7564ZM56.5438 60.0345C56.5438 59.7329 56.2985 59.4876 55.997 59.4876H23.0063C22.7048 59.4876 22.4595 59.7329 22.4595 60.0345C22.4595 60.3361 22.7048 60.5814 23.0063 60.5814H55.997C56.2985 60.5814 56.5438 60.3376 56.5438 60.0345ZM25.1454 67.2204C24.8438 67.2204 24.5985 67.4657 24.5985 67.7673C24.5985 68.0689 24.8438 68.3142 25.1454 68.3142H53.8579C54.1595 68.3142 54.4048 68.0689 54.4048 67.7673C54.4048 67.4657 54.1595 67.2204 53.8579 67.2204H25.1454Z" fill="#9A9A9A"/>
<path d="M60.8195 10.1324C61.1211 10.1324 61.3664 9.88712 61.3664 9.58555V7.84805C61.3664 7.20118 61.1352 6.57305 60.7148 6.08087L57.4102 2.20587C57.0574 1.78865 56.5555 1.52587 56.0116 1.47362C55.4677 1.42136 54.925 1.58377 54.4992 1.92618L51.0539 4.67462C50.8756 4.81797 50.6538 4.89611 50.425 4.89611C50.1963 4.89611 49.9744 4.81797 49.7961 4.67462L46.1445 1.76055C45.7729 1.46173 45.3104 1.29883 44.8336 1.29883C44.3568 1.29883 43.8942 1.46173 43.5227 1.76055L39.8711 4.67462C39.6928 4.81797 39.4709 4.89611 39.2422 4.89611C39.0134 4.89611 38.7915 4.81797 38.6133 4.67462L34.9633 1.76055C34.5917 1.46173 34.1292 1.29883 33.6523 1.29883C33.1755 1.29883 32.713 1.46173 32.3414 1.76055L28.6898 4.67462C28.5116 4.81797 28.2897 4.89611 28.0609 4.89611C27.8322 4.89611 27.6103 4.81797 27.432 4.67462L23.9867 1.92618C23.5609 1.58377 23.0182 1.42136 22.4743 1.47362C21.9305 1.52587 21.4286 1.78865 21.0758 2.20587L17.7711 6.08087C17.3507 6.57373 17.1197 7.20026 17.1195 7.84805V72.8371C17.1195 74.5652 15.5445 76.3027 13.593 76.3027C11.668 76.3027 10.1055 74.7231 10.1055 72.7965V68.2652C10.1055 67.9699 10.3086 67.8324 10.3945 67.7871C10.482 67.7418 10.7102 67.6543 10.9523 67.8231L12.4133 68.8418C13.1305 69.3418 14.0945 69.3418 14.8117 68.8418C15.0602 68.6699 15.1211 68.3277 14.9477 68.0809C14.9067 68.0218 14.8546 67.9715 14.7941 67.9326C14.7337 67.8938 14.6662 67.8673 14.5954 67.8547C14.5247 67.8421 14.4522 67.8436 14.3821 67.859C14.3119 67.8745 14.2455 67.9037 14.1867 67.9449C14.018 68.0617 13.8177 68.1242 13.6125 68.1242C13.4073 68.1242 13.207 68.0617 13.0383 67.9449L11.5773 66.9262C11.0773 66.5777 10.4289 66.5356 9.88828 66.8184C9.34766 67.1012 9.01172 67.6559 9.01172 68.2652V72.7965C9.01172 75.334 11.0758 77.3965 13.6117 77.3965H56.7773C59.3086 77.3965 61.3664 75.3371 61.3664 72.8074V36.9652C61.3664 36.6637 61.1211 36.4184 60.8195 36.4184C60.518 36.4184 60.2727 36.6637 60.2727 36.9652V72.8043C60.2727 74.7324 58.7039 76.2996 56.7773 76.2996L16.6258 76.3027C17.6008 75.4512 18.2117 74.1996 18.2117 72.8356V7.84805C18.2117 7.46055 18.3508 7.08399 18.6023 6.79024L21.907 2.91524C22.0763 2.71507 22.3172 2.58898 22.5781 2.56388C22.8391 2.53877 23.0995 2.61664 23.3039 2.78087L26.7492 5.5293C27.1208 5.82813 27.5833 5.99103 28.0602 5.99103C28.537 5.99103 28.9995 5.82813 29.3711 5.5293L33.0227 2.61524C33.2009 2.47189 33.4228 2.39375 33.6516 2.39375C33.8803 2.39375 34.1022 2.47189 34.2805 2.61524L37.9305 5.5293C38.7023 6.14493 39.7805 6.14649 40.5539 5.5293L44.2039 2.61524C44.3822 2.47189 44.6041 2.39375 44.8328 2.39375C45.0616 2.39375 45.2835 2.47189 45.4617 2.61524L49.1133 5.5293C49.4849 5.82813 49.9474 5.99103 50.4242 5.99103C50.9011 5.99103 51.3636 5.82813 51.7352 5.5293L55.1805 2.78087C55.3847 2.61629 55.6452 2.53821 55.9063 2.56332C56.1674 2.58844 56.4082 2.71476 56.5773 2.91524L59.882 6.79024C60.1336 7.08555 60.2727 7.46055 60.2727 7.84805V9.58712C60.2727 9.88868 60.518 10.1324 60.8195 10.1324Z" fill="#9A9A9A"/>
</svg>

<svg xmlns="http://www.w3.org/2000/svg" width="80" height="80" fill="none"><path fill="#E1EAF8" d="M60.82 47.759a2.18 2.18 0 0 0-2.178 2.178v22.869a1.867 1.867 0 0 1-1.862 1.865l-28.119-.028a2.176 2.176 0 0 0-2.178 2.175l30.295.03a4.04 4.04 0 0 0 4.042-4.042z"/><path fill="#0166FF" d="M60.823 12.126c-6.127 0-11.094 4.967-11.094 11.094s4.967 11.093 11.094 11.093 11.093-4.967 11.093-11.093c.002-6.127-4.965-11.094-11.093-11.094"/><path fill="#fff" d="m59.864 27.049 7.061-6.747a.963.963 0 0 0-1.325-1.398l-6.41 6.109-2.868-2.735a.96.96 0 0 0-1.391.008.96.96 0 0 0 .066 1.39l3.53 3.373a.976.976 0 0 0 1.337 0"/><path fill="#0166FF" d="M69.834 53.439a.55.55 0 0 1-.231-.052l-3.684-1.725a.547.547 0 0 1 .462-.99l3.684 1.724a.547.547 0 0 1-.23 1.042M65.65 39.335a.546.546 0 0 1-.252-1.032l3.613-1.87a.548.548 0 0 1 .503.971l-3.613 1.87a.54.54 0 0 1-.251.061M9.16 53.438a.546.546 0 0 1-.23-1.042l3.684-1.725a.55.55 0 0 1 .726.264.55.55 0 0 1-.264.727l-3.684 1.725a.6.6 0 0 1-.231.051m4.185-14.103a.6.6 0 0 1-.252-.06l-3.612-1.87a.547.547 0 1 1 .503-.973l3.613 1.87a.547.547 0 0 1-.252 1.033"/><path fill="#E1EAF8" d="m13.612 68.67 4.053-1.495v5.62c0 2.043-1.51 3.73-3.473 4.013l-.582.042a4.053 4.053 0 0 1-4.053-4.053v-4.54c0-.842.908-1.37 1.64-.955z"/><path fill="#9A9A9A" d="M51.347 13.777a.547.547 0 0 0-.547-.547H27.683a.547.547 0 0 0 0 1.094H50.8a.547.547 0 0 0 .547-.547m-28.888 7.597c0 .301.246.546.547.546h23.896a.547.547 0 0 0 0-1.093H23.006a.547.547 0 0 0-.547.547m.547 8.28h24.985a.547.547 0 0 0 0-1.094H23.006a.547.547 0 0 0 0 1.093m27.3 14.37H28.697a.547.547 0 0 0 0 1.093h21.608a.548.548 0 0 0 .001-1.093m5.691 7.732h-32.99a.547.547 0 0 0 0 1.094h32.99a.547.547 0 0 0 0-1.094m.547 8.279a.547.547 0 0 0-.547-.547h-32.99a.547.547 0 0 0 0 1.093h32.99a.546.546 0 0 0 .547-.547M25.145 67.22a.547.547 0 0 0 0 1.094h28.713a.547.547 0 0 0 0-1.094z"/><path fill="#9A9A9A" d="M60.82 10.132a.547.547 0 0 0 .546-.546V7.848c0-.647-.23-1.275-.651-1.767L57.41 2.206a2.094 2.094 0 0 0-2.91-.28l-3.446 2.749a1.004 1.004 0 0 1-1.258 0L46.145 1.76a2.09 2.09 0 0 0-2.622 0L39.87 4.675a1.004 1.004 0 0 1-1.258 0l-3.65-2.914a2.09 2.09 0 0 0-2.622 0L28.69 4.675a1 1 0 0 1-1.258 0l-3.445-2.749a2.094 2.094 0 0 0-2.911.28L17.77 6.08a2.72 2.72 0 0 0-.652 1.767v64.99c0 1.727-1.575 3.465-3.526 3.465-1.925 0-3.488-1.58-3.488-3.507v-4.53c0-.296.204-.434.29-.479a.53.53 0 0 1 .557.036l1.461 1.019c.717.5 1.681.5 2.399 0a.545.545 0 0 0-.217-.987.55.55 0 0 0-.408.09 1.01 1.01 0 0 1-1.149 0l-1.46-1.019a1.63 1.63 0 0 0-1.69-.108c-.54.283-.876.838-.876 1.447v4.531c0 2.538 2.064 4.6 4.6 4.6h43.165c2.532 0 4.59-2.059 4.59-4.589V36.965a.547.547 0 0 0-1.094 0v35.84a3.5 3.5 0 0 1-3.496 3.495l-40.151.003a4.61 4.61 0 0 0 1.586-3.467V7.848c0-.387.139-.764.39-1.058l3.305-3.875a1.005 1.005 0 0 1 1.397-.134l3.445 2.748a2.09 2.09 0 0 0 2.622 0l3.652-2.914a1 1 0 0 1 1.258 0l3.65 2.914c.771.616 1.85.617 2.623 0l3.65-2.914a1.004 1.004 0 0 1 1.258 0l3.651 2.914a2.09 2.09 0 0 0 2.622 0l3.446-2.748a1.003 1.003 0 0 1 1.396.134l3.305 3.875c.252.296.39.67.39 1.058v1.74c0 .3.246.544.547.544"/></svg>
